packages/icons/svg/Outline/google.svg

<svg fill="none" height="24" viewBox="0 0 24 24" width="24" xmlns="http://www.w3.org/2000/svg"><path clip-rule="evenodd" d="m12.0029 4.00007c-2.18202 0-4.22002.861-5.74002 2.426-1.52 1.563-2.322 3.62603-2.259 5.80903.117 4.104 3.549 7.583 7.64902 7.757 4.382.173 8.119-3.212 8.342-7.573.007-.128.006-.693.004-1.219h-7.002v1.582h5.309l-.405 1.298c-.721 2.314-2.549 3.902-4.89 4.248-1.746.253-3.56502-.246-4.98802-1.383-1.397-1.113-2.273-2.731-2.405-4.44-.138-1.807.459-3.52904 1.685-4.85203 1.666-1.8 4.35902-2.493 6.66702-1.744l.773-1.429c-.875-.319-1.794-.48-2.74-.48zm-.007 17.99893c-.141 0-.284-.003-.427-.009-5.12801-.217-9.41801-4.567-9.56501-9.698-.077-2.728.925-5.306 2.824-7.26 1.90099-1.955 4.448-3.032 7.17501-3.032 1.434 0 2.82.298 4.119.885.361.163.642.473.769.851.129.383.093.807-.099 1.162l-1.292 2.384c-.351.652-1.143.932-1.835.643-1.653-.673-3.67302-.233-4.89502 1.087-.84199.909-1.253 2.095-1.15799 3.339.08999 1.158.69399 2.262 1.65799 3.031.99402.793 2.25602 1.146 3.44802.968 1.1-.163 2.012-.715 2.632-1.568h-2.903c-.799 0-1.45-.65-1.45-1.45v-2.682c0-.799.651-1.45 1.45-1.45h8.1c.793 0 1.444.645 1.45 1.438.003.631.005 1.698-.004 1.882-.273 5.312-4.716 9.479-9.997 9.479z" fill="#6b7280" fill-rule="evenodd"/></svg>

<svg width="24" height="24" viewBox="0 0 24 24" fill="none" xmlns="http://www.w3.org/2000/svg">
<g id="Icon/Outline/google">
<path id="Mask" fill-rule="evenodd" clip-rule="evenodd" d="M12.0029 4C9.82088 4 7.78289 4.861 6.26289 6.426C4.74289 7.989 3.94089 10.052 4.00389 12.235C4.12089 16.339 7.55289 19.818 11.6529 19.992C16.0349 20.165 19.7719 16.78 19.9949 12.419C20.0019 12.291 20.0009 11.726 19.9989 11.2H12.9969V12.782H18.3059L17.9009 14.08C17.1799 16.394 15.3519 17.982 13.0109 18.328C11.2649 18.581 9.44589 18.082 8.02289 16.945C6.62589 15.832 5.74989 14.214 5.61789 12.505C5.47989 10.698 6.07689 8.976 7.30289 7.653C8.96889 5.853 11.6619 5.16 13.9699 5.909L14.7429 4.48C13.8679 4.161 12.9489 4 12.0029 4ZM11.9959 21.999C11.8549 21.999 11.7119 21.996 11.5689 21.99C6.44089 21.773 2.15089 17.423 2.00389 12.292C1.92689 9.564 2.92889 6.986 4.82789 5.032C6.72889 3.077 9.27589 2 12.0029 2C13.4369 2 14.8229 2.298 16.1219 2.885C16.4829 3.048 16.7639 3.358 16.8909 3.736C17.0199 4.119 16.9839 4.543 16.7919 4.898L15.4999 7.282C15.1489 7.934 14.3569 8.214 13.6649 7.925C12.0119 7.252 9.99189 7.692 8.76989 9.012C7.92789 9.921 7.51689 11.107 7.61189 12.351C7.70189 13.509 8.30589 14.613 9.26989 15.382C10.2639 16.175 11.5259 16.528 12.7179 16.35C13.8179 16.187 14.7299 15.635 15.3499 14.782H12.4469C11.6479 14.782 10.9969 14.132 10.9969 13.332V10.65C10.9969 9.851 11.6479 9.2 12.4469 9.2H20.5469C21.3399 9.2 21.9909 9.845 21.9969 10.638C21.9999 11.269 22.0019 12.336 21.9929 12.52C21.7199 17.832 17.2769 21.999 11.9959 21.999Z" fill="#000000"/>
</g>
</svg>
